images/mission-and-footer/smile.svg

<svg width="60" height="55" viewBox="0 0 60 55" fill="none" xmlns="http://www.w3.org/2000/svg">
<g clip-path="url(#clip0_1_125)">
<path d="M43.6989 44.7858H16.5685C14.5515 44.7858 12.9163 43.1442 12.9163 41.1191V21.6072L30.1337 10.2144L47.3511 21.6072V41.1191C47.3511 43.1442 45.716 44.7858 43.6989 44.7858Z" stroke="white" stroke-width="30" stroke-linecap="round" stroke-linejoin="round"/>
<path d="M29.3852 38.31C26.9157 38.31 24.6134 37.0831 23.2266 35.0284C22.863 34.4896 23.0032 33.7568 23.5399 33.3917C24.0768 33.0262 24.8067 33.1673 25.1704 33.7061C26.1198 35.1129 27.6954 35.9528 29.3852 35.9528C31.075 35.9528 32.6507 35.1129 33.6001 33.7061C33.9637 33.1675 34.6938 33.0263 35.2305 33.3917C35.7673 33.7568 35.9075 34.4896 35.5438 35.0284C34.1571 37.0831 31.8547 38.31 29.3852 38.31Z" fill="#7837F3"/>
<path d="M29.3852 38.31C26.9157 38.31 24.6134 37.0831 23.2266 35.0284C22.863 34.4896 23.0032 33.7568 23.5399 33.3917C24.0768 33.0262 24.8067 33.1673 25.1704 33.7061C26.1198 35.1129 27.6954 35.9528 29.3852 35.9528C31.075 35.9528 32.6507 35.1129 33.6001 33.7061C33.9637 33.1675 34.6938 33.0263 35.2305 33.3917C35.7673 33.7568 35.9075 34.4896 35.5438 35.0284C34.1571 37.0831 31.8547 38.31 29.3852 38.31Z" fill="#7837F3"/>
<path d="M36.781 28.1896C37.725 28.1896 38.4902 27.4213 38.4902 26.4736C38.4902 25.5258 37.725 24.7573 36.781 24.7573C35.837 24.7573 35.0718 25.5258 35.0718 26.4736C35.0718 27.4213 35.837 28.1896 36.781 28.1896Z" fill="#7837F3"/>
<path d="M23.7223 26.4736C23.7223 27.4213 22.957 28.1896 22.0131 28.1896C21.0691 28.1896 20.3038 27.4213 20.3038 26.4736C20.3038 25.5258 21.0691 24.7573 22.0131 24.7573C22.957 24.7573 23.7223 25.5258 23.7223 26.4736Z" fill="#7837F3"/>
<path d="M36.6495 25.5811C36.1587 25.5811 35.7607 25.9806 35.7607 26.4734C35.7607 26.9663 36.1587 27.3657 36.6495 27.3657H36.9124C37.4033 27.3657 37.8013 26.9663 37.8013 26.4734C37.8013 25.9806 37.4033 25.5811 36.9124 25.5811H36.6495Z" fill="#7837F3"/>
<path d="M36.6495 25.5811C36.1587 25.5811 35.7607 25.9806 35.7607 26.4734C35.7607 26.9663 36.1587 27.3657 36.6495 27.3657H36.9124C37.4033 27.3657 37.8013 26.9663 37.8013 26.4734C37.8013 25.9806 37.4033 25.5811 36.9124 25.5811H36.6495Z" fill="#7837F3"/>
<path d="M21.8815 25.5811C21.3907 25.5811 20.9927 25.9806 20.9927 26.4734C20.9927 26.9663 21.3907 27.3657 21.8815 27.3657H22.1443C22.6353 27.3657 23.0333 26.9663 23.0333 26.4734C23.0333 25.9806 22.6353 25.5811 22.1443 25.5811H21.8815Z" fill="#7837F3"/>
<path d="M21.8815 25.5811C21.3907 25.5811 20.9927 25.9806 20.9927 26.4734C20.9927 26.9663 21.3907 27.3657 21.8815 27.3657H22.1443C22.6353 27.3657 23.0333 26.9663 23.0333 26.4734C23.0333 25.9806 22.6353 25.5811 22.1443 25.5811H21.8815Z" fill="#7837F3"/>
</g>
<defs>
<clipPath id="clip0_1_125">
<rect width="60" height="55" fill="white"/>
</clipPath>
</defs>
</svg>

<svg xmlns="http://www.w3.org/2000/svg" width="60" height="55" fill="none"><g clip-path="url(#a)"><path stroke="#fff" stroke-linecap="round" stroke-linejoin="round" stroke-width="30" d="M43.699 44.786h-27.13a3.66 3.66 0 0 1-3.653-3.667V21.607l17.218-11.393L47.35 21.607V41.12a3.66 3.66 0 0 1-3.652 3.667Z"/><path fill="#7837F3" d="M29.385 38.31a7.425 7.425 0 0 1-6.158-3.282 1.181 1.181 0 0 1 .313-1.636 1.17 1.17 0 0 1 1.63.314 5.081 5.081 0 0 0 4.215 2.247c1.69 0 3.266-.84 4.215-2.247a1.171 1.171 0 0 1 1.63-.314c.537.365.678 1.098.314 1.636a7.425 7.425 0 0 1-6.159 3.282Z"/><path fill="#7837F3" d="M29.385 38.31a7.425 7.425 0 0 1-6.158-3.282 1.181 1.181 0 0 1 .313-1.636 1.17 1.17 0 0 1 1.63.314 5.081 5.081 0 0 0 4.215 2.247c1.69 0 3.266-.84 4.215-2.247a1.171 1.171 0 0 1 1.63-.314c.537.365.678 1.098.314 1.636a7.425 7.425 0 0 1-6.159 3.282ZM36.781 28.19c.944 0 1.71-.769 1.71-1.716 0-.948-.766-1.717-1.71-1.717s-1.71.769-1.71 1.717c0 .947.766 1.716 1.71 1.716ZM23.722 26.474c0 .947-.765 1.716-1.709 1.716-.944 0-1.71-.769-1.71-1.716 0-.948.766-1.717 1.71-1.717s1.71.769 1.71 1.717Z"/><path fill="#7837F3" d="M36.65 25.581a.89.89 0 0 0-.89.892.89.89 0 0 0 .89.893h.262c.491 0 .89-.4.89-.893a.89.89 0 0 0-.89-.892h-.262Z"/><path fill="#7837F3" d="M36.65 25.581a.89.89 0 0 0-.89.892.89.89 0 0 0 .89.893h.262c.491 0 .89-.4.89-.893a.89.89 0 0 0-.89-.892h-.262ZM21.881 25.581a.89.89 0 0 0-.888.892.89.89 0 0 0 .889.893h.262a.89.89 0 0 0 .89-.893.89.89 0 0 0-.89-.892h-.262Z"/><path fill="#7837F3" d="M21.881 25.581a.89.89 0 0 0-.888.892.89.89 0 0 0 .889.893h.262a.89.89 0 0 0 .89-.893.89.89 0 0 0-.89-.892h-.262Z"/></g><defs><clipPath id="a"><path fill="#fff" d="M0 0h60v55H0z"/></clipPath></defs></svg>
